X:93
T:The Mare's Tail
R:reel
C:Paul S. Cranford
O:Cape Breton Island
S:http://www.cranfordpub.com
D:currently unrecorded
B:currently unpublished in book form
Z:psc, (re-formatted,updated 9/17/04)
N:
H:                                                        copyrights Cranford Publications, SOCAN
L:1/8
Q:333
M:C|
K:G
z D|G2 dG BcdB|Aafd efga|gdBg ecdB|ADFD FGAF|
G2 dG BcdB|Aafd efga|gdba gdec|dBAF G2:|
|:AB|cEcd ecdc|BDBc dBcB|ADFD CDFA|GFGA BGAB|
cEcd ecdc|BDBc dBcB|ADFc BdAF| G2 GF G2:|
